X: 2067
T: Âşiyân-ı Mürg-i Dil
C: Udî Nevres Bey
O: Turkey
F: http://compmusic.upf.edu/node/140
N: isfahan--sarki--agiraksak--asiyan-i_murg-i--udi_nevres_bey
N: makam= isfahan
N: form= sarki
N: usul= agiraksak = 9/4
M: 9/4
L: 1/16
K: C _2/4B   
Q: 1/4=72
%%MIDI tuningsystem comma53
AA2B c2d2 e2fg fed2 fedf edce d4 fede d4  | 
w:  ARANAĞME  | 
d3e ^3/4f2g2 a2b2 a2g2 ^f3^3/4e d2g2 f8 fed2  | \
w:   | 
c'3b a2g2 f2e2 d2e2 (3b2a2g2 (3f2e2d2 d2c2 _1/4B2^3/4A2 B4  | 
w:   | 
G3A B2c2 d2e2 d2c2 c2B4A2 A3f edcB A4  | \
w:   | 
AA2B c2d2 e2fg fed2 fedf edce d4 fede d4  | 
w:  ARANAĞME  | 
d3e ^3/4f2g2 a2b2 a2g2 ^f3^3/4e d2g2 f8 fed2  | \
w:   | 
c'3b a2g2 f2e2 d2e2 (3b2a2g2 (3f2e2d2 d2c2 _1/4B2^3/4A2 B4  | 
w:   | 
G3A B2c2 d2e2 d2c2 c2B4A2 A6ef egfe  | \
w:   | 
f3e ded^c d2=Bc B2c2 d8 e3d =c2d2 c2de  | 
w:  *  *  *  *  *  *  *  Â *  *  şi yân_ ı   | 
d2c4B2 z2cd c2d2 c2B4A2 A8 d4  | e2{f}ef d4 d2ed c2d2 e6d2 e2^2/4f2 g2a2 g2=f2  | 
w:  *  *  *  mürg_ *  *  i  dil  *  *  zülf_  |  *  *  *  *  *  *  ü  *  *  pe rî *  şâ  | 
e2d2 c2B2 B2g2 ^3/4f2e2 ag=fe eddc d6ef eddc  | 
w:  *  *  *  *  *  *  *  *  *  *  *  *  nın *  da *  dır   SAZ  | 
d3/2B/de ^3/4fgfa g2g2 ^f2^3/4e2 f6d2 ^3/4c2d2 =e2^2/4f2 g2a2  | \
w:  *  *  *  *  *  *  *  *  *  Kan *  de  var *  sam   | 
g3/2_b/ag fed2 z2g2 f2e2 e3d dfed d6B2 c2B2  | 
w:  *  *  *  *  *  *  *  ey  *  pe ri  *  *  *  *  *  gön  | 
d8 d2c2 B2c2 d6a2 {_b}a3g f3e d4  | \
w:  *  *  lüm  *  se nin  *  *  ya  | 
dccd efed cdcB B2BA A8 z2g2 f2e2 eddc  | 
w:  nın *  *  *  *  *  *  *  *  *  *  *  *  da *  dır   SAZ  | 
d3/2B/de ^3/4fgfa g2g2 ^f2^3/4e2 f6d2 ^3/4c2d2 =e2^2/4f2 g2a2  | \
w:  *  *  *  *  *  *  *  *  *  Kan *  de  var *  sam   | 
g3/2_b/ag fed2 z2g2 f2e2 e3d dfed d6B2 c2B2  | 
w:  *  *  *  *  *  *  *  ey  *  pe ri  *  *  *  *  *  gön  | 
d8 d2c2 B2c2 d6a2 {_b}a3g f3e d4  | \
w:  *  *  lüm  *  se nin  *  *  ya  | 
dccd efed cdcB B2BA A8 z2g2 ^f2^3/4e2 d2e2  | 
w:  nın *  *  *  *  *  *  *  *  *  *  *  *  da *  dır   SAZ  | 
^f3g gf^3/4e2 gff4f2 f8 g2^3/4f2 =e4 ^2/4f2g2  | \
w:  *  *  *  *  *  *  *  Çek me  dâ men   | 
e2d2 c2B2 z2cd c2d2 c2B4A2 A8 d4  | 
w:  *  *  *  *  nâz  *  *  e dip  *  *  üf  | 
e2{f}ef d4 d2ed c2d2 e6d2 e2^3/4f2 g2a2 g2=f2  | \
w:  *  *  *  *  *  *  tâ *  *  de ler *  den   | 
e2d2 c2B2 z2g2 f2e2 agfe eddc d6ef eddc  | 
w:  *  *  *  *  kıl  *  *  *  *  *  *  *  *  ha *  zer   SAZ  | 
d3/2B/de ^3/4fgfa g2g2 ^f2^3/4e2 f6d2 ^3/4c2d2 =e2^2/4f2 g2a2  | \
w:  *  *  *  *  *  *  *  *  *  Kan *  de  var *  sam   | 
g3/2_b/ag fed2 z2g2 f2e2 e3d dfed d6B2 c2B2  | 
w:  *  *  *  *  *  *  *  ey  *  pe ri  *  *  *  *  *  gön  | 
d8 d2c2 B2c2 d6a2 {_b}a3g f3e d4  | \
w:  *  *  lüm  *  se nin  *  *  ya  | 
dccd efed cdcB B2BA A8 z2g2 f2e2 eddc  | 
w:  nın *  *  *  *  *  *  *  *  *  *  *  *  da *  dır   SAZ  | 
d3/2B/de ^3/4fgfa g2g2 ^f2^3/4e2 f6d2 ^3/4c2d2 =e2^2/4f2 g2a2  | \
w:  *  *  *  *  *  *  *  *  *  Kan *  de  var *  sam   | 
g3/2_b/ag fed2 z2g2 f2e2 e3d dfed d6B2 c2B2  | 
w:  *  *  *  *  *  *  *  ey  *  pe ri  *  *  *  *  *  gön  | 
d8 d2c2 B2c2 d6a2 {_b}a3g f3e d4  | \
w:  *  *  lüm  *  se nin  *  *  ya  | 
dccd efed cdcB B2BA A8 z2|
w:  nın *  *  *  *  *  *  *  *  *  *  *  *  da *  dır    | 


